img/cardAss.svg

<svg width="61" height="91" viewBox="0 0 61 91" fill="none" xmlns="http://www.w3.org/2000/svg">
<rect x="0.392578" y="0.0498047" width="60.057" height="90.0855" rx="4.61977" fill="white"/>
<mask id="mask0_1592_9465" style="mask-type:alpha" maskUnits="userSpaceOnUse" x="1" y="1" width="58" height="87">
<path d="M11.2824 2.3597H53.5203C55.7528 2.3597 57.5626 4.1695 57.5626 6.402L57.5625 67.6855C57.5625 68.6028 56.8189 69.3464 55.9017 69.3464C54.5771 69.3464 53.4316 70.2696 53.1502 71.564L50.8911 81.9556C50.692 82.8714 51.0989 83.8123 51.9025 84.2944C52.7896 84.8267 52.4278 86.1879 51.3935 86.2094L6.41584 87.1464C4.09651 87.1948 2.21244 85.2854 2.2917 82.9669L4.31849 23.6847C4.37276 22.0974 5.67518 20.8388 7.26334 20.8388C9.52854 20.8388 11.3649 19.0025 11.3649 16.7373L11.3649 8.21691C11.3649 7.25616 10.9125 6.35148 10.1439 5.77503C8.68518 4.68097 9.45894 2.3597 11.2824 2.3597Z" fill="#C4C4C4" stroke="black" stroke-width="1.15494"/>
</mask>
<g mask="url(#mask0_1592_9465)">
<rect x="6.1678" y="5.24715" width="49.6625" height="79.691" rx="4.0423" stroke="black" stroke-width="1.15494"/>
</g>
<path d="M36.1926 54.3322H25.8213C29.9468 51.7725 30.6778 49.6987 31.007 45.6055L24.0928 49.0962C20.3111 46.4194 20.1126 44.8934 24.0928 42.1149L31.007 45.6055L27.5496 36.8791C29.7394 32.3475 31.8707 32.5159 34.4638 36.8791L31.007 45.6055L38.7854 42.1149C41.8176 44.8415 41.1465 46.3696 38.7854 49.0962L31.007 45.6055C31.6358 49.6993 32.5329 51.7259 36.1926 54.3322Z" fill="black"/>
<path d="M31.007 45.6055C30.6778 49.6987 29.9468 51.7725 25.8213 54.3322H36.1926C32.5329 51.7259 31.6358 49.6993 31.007 45.6055ZM31.007 45.6055L24.0928 49.0962C20.3111 46.4194 20.1126 44.8934 24.0928 42.1149L31.007 45.6055ZM31.007 45.6055L34.4638 36.8791C31.8707 32.5159 29.7394 32.3475 27.5496 36.8791L31.007 45.6055ZM31.007 45.6055L38.7854 42.1149C41.8176 44.8415 41.1465 46.3696 38.7854 49.0962L31.007 45.6055Z" stroke="black" stroke-width="1.15494"/>
<path d="M16.6963 18.5288H11.8157C13.7571 17.3912 14.1011 16.4695 14.256 14.6503L11.0023 16.2017C9.22266 15.012 9.12927 14.3338 11.0023 13.0989L14.256 14.6503L12.629 10.7719C13.6595 8.75786 14.6625 8.83273 15.8828 10.7719L14.256 14.6503L17.9165 13.0989C19.3434 14.3108 19.0275 14.9899 17.9165 16.2017L14.256 14.6503C14.5519 16.4698 14.9741 17.3705 16.6963 18.5288Z" fill="black"/>
<path d="M14.256 14.6503C14.1011 16.4695 13.7571 17.3912 11.8157 18.5288H16.6963C14.9741 17.3705 14.5519 16.4698 14.256 14.6503ZM14.256 14.6503L11.0023 16.2017C9.22266 15.012 9.12927 14.3338 11.0023 13.0989L14.256 14.6503ZM14.256 14.6503L15.8828 10.7719C14.6625 8.83273 13.6595 8.75786 12.629 10.7719L14.256 14.6503ZM14.256 14.6503L17.9165 13.0989C19.3434 14.3108 19.0275 14.9899 17.9165 16.2017L14.256 14.6503Z" stroke="black" stroke-width="1.15494"/>
<path d="M44.146 71.6562L49.0266 71.6562C47.0852 72.7938 46.7412 73.7156 46.5863 75.5347L49.84 73.9833C51.6196 75.173 51.713 75.8512 49.84 77.0861L46.5863 75.5347L48.2133 79.4131C47.1828 81.4272 46.1798 81.3523 44.9595 79.4131L46.5863 75.5347L42.9258 77.0861C41.4989 75.8743 41.8148 75.1951 42.9258 73.9833L46.5863 75.5347C46.2903 73.7153 45.8682 72.8145 44.146 71.6562Z" fill="black"/>
<path d="M46.5863 75.5347C46.7412 73.7156 47.0852 72.7938 49.0266 71.6562L44.146 71.6562C45.8682 72.8145 46.2903 73.7153 46.5863 75.5347ZM46.5863 75.5347L49.84 73.9833C51.6196 75.173 51.713 75.8512 49.84 77.0861L46.5863 75.5347ZM46.5863 75.5347L44.9595 79.4131C46.1798 81.3523 47.1828 81.4272 48.2133 79.4131L46.5863 75.5347ZM46.5863 75.5347L42.9258 77.0861C41.4989 75.8743 41.8148 75.1951 42.9258 73.9833L46.5863 75.5347Z" stroke="black" stroke-width="1.15494"/>
<path d="M2.27617 15.3324C2.27617 14.9561 2.26639 14.5798 2.24684 14.2034C2.23218 13.8271 2.21508 13.4508 2.19553 13.0744C2.17598 12.6932 2.15643 12.312 2.13688 11.9308C2.12222 11.5446 2.11488 11.1537 2.11488 10.7578C2.11488 10.3423 2.1271 9.92201 2.15154 9.49681C2.18087 9.06671 2.23463 8.65372 2.31283 8.25784C2.39103 7.85706 2.49855 7.48317 2.6354 7.13617C2.77225 6.78427 2.95064 6.4788 3.17058 6.21977C3.39051 5.96073 3.65932 5.75546 3.97701 5.60395C4.29469 5.45244 4.66858 5.37668 5.09868 5.37668C5.50922 5.37668 5.86601 5.44266 6.16903 5.57462C6.47205 5.7017 6.72864 5.87765 6.9388 6.10247C7.15385 6.32729 7.32736 6.59121 7.45932 6.89424C7.59617 7.19726 7.70125 7.52472 7.77456 7.87661C7.85276 8.22851 7.90652 8.59507 7.93584 8.97629C7.96517 9.35751 7.97983 9.73629 7.97983 10.1126C7.97983 10.2104 7.97738 10.2959 7.9725 10.3692C7.9725 10.4425 7.97005 10.5232 7.96517 10.6111C7.96517 10.6942 7.96028 10.7944 7.9505 10.9117C7.94562 11.029 7.93828 11.183 7.92851 11.3736C7.91873 11.5593 7.90652 11.789 7.89185 12.0627C7.88208 12.3364 7.86986 12.6736 7.8552 13.0744C7.84053 13.4752 7.82343 13.9493 7.80388 14.4967C7.78433 15.0392 7.76478 15.6745 7.74523 16.4028L5.5532 16.3221C5.63629 15.765 5.7096 15.2078 5.77314 14.6506C5.84156 14.0886 5.89777 13.5656 5.94176 13.0818C5.56542 13.0524 5.21597 13.0378 4.8934 13.0378C4.72723 13.0378 4.57083 13.0402 4.4242 13.0451C4.27758 13.05 4.14806 13.0573 4.03565 13.0671C4.05031 13.3212 4.06742 13.59 4.08697 13.8735C4.10652 14.157 4.12851 14.4429 4.15295 14.7313C4.17739 15.0196 4.20427 15.3055 4.23359 15.589C4.26292 15.8676 4.29713 16.134 4.33623 16.3881L2.2615 16.4468C2.27128 16.2659 2.27617 16.0826 2.27617 15.8969C2.27617 15.7063 2.27617 15.5181 2.27617 15.3324ZM3.94768 11.5202C4.0943 11.53 4.23848 11.5349 4.38022 11.5349C4.52195 11.5349 4.66125 11.5349 4.7981 11.5349C5.32105 11.5349 5.74137 11.5202 6.05906 11.4909C6.08838 11.1439 6.11771 10.7944 6.14703 10.4425C6.18125 10.0906 6.19835 9.7143 6.19835 9.31353C6.19835 8.468 6.11038 7.8253 5.93443 7.38543C5.76337 6.94067 5.50922 6.71829 5.17199 6.71829C4.98627 6.71829 4.81521 6.78427 4.65881 6.91623C4.50241 7.04819 4.36556 7.25346 4.24826 7.53205C4.13585 7.80575 4.04543 8.15276 3.97701 8.57308C3.91347 8.9934 3.8817 9.48947 3.8817 10.0613C3.8817 10.2617 3.88659 10.4767 3.89636 10.7064C3.91102 10.9313 3.92813 11.2025 3.94768 11.5202Z" fill="black"/>
<path d="M58.5656 74.8529C58.5656 75.2292 58.5754 75.6055 58.595 75.9819C58.6096 76.3582 58.6267 76.7345 58.6463 77.1109C58.6658 77.4921 58.6854 77.8733 58.7049 78.2545C58.7196 78.6407 58.7269 79.0317 58.7269 79.4275C58.7269 79.843 58.7147 80.2633 58.6903 80.6885C58.6609 81.1186 58.6072 81.5316 58.529 81.9275C58.4508 82.3282 58.3432 82.7021 58.2064 83.0491C58.0695 83.401 57.8912 83.7065 57.6712 83.9655C57.4513 84.2246 57.1825 84.4298 56.8648 84.5814C56.5471 84.7329 56.1732 84.8086 55.7431 84.8086C55.3326 84.8086 54.9758 84.7426 54.6728 84.6107C54.3697 84.4836 54.1132 84.3077 53.903 84.0828C53.6879 83.858 53.5144 83.5941 53.3825 83.2911C53.2456 82.988 53.1406 82.6606 53.0672 82.3087C52.989 81.9568 52.9353 81.5902 52.906 81.209C52.8766 80.8278 52.862 80.449 52.862 80.0727C52.862 79.9749 52.8644 79.8894 52.8693 79.8161C52.8693 79.7428 52.8717 79.6621 52.8766 79.5742C52.8766 79.4911 52.8815 79.3909 52.8913 79.2736C52.8962 79.1563 52.9035 79.0023 52.9133 78.8117C52.9231 78.626 52.9353 78.3963 52.9499 78.1226C52.9597 77.8489 52.9719 77.5117 52.9866 77.1109C53.0013 76.7101 53.0184 76.236 53.0379 75.6886C53.0575 75.1461 53.077 74.5108 53.0966 73.7825L55.2886 73.8632C55.2055 74.4203 55.1322 74.9775 55.0687 75.5347C55.0002 76.0967 54.944 76.6197 54.9 77.1036C55.2764 77.1329 55.6258 77.1475 55.9484 77.1475C56.1146 77.1475 56.271 77.1451 56.4176 77.1402C56.5642 77.1353 56.6937 77.128 56.8061 77.1182C56.7915 76.8641 56.7744 76.5953 56.7548 76.3118C56.7353 76.0283 56.7133 75.7424 56.6888 75.454C56.6644 75.1657 56.6375 74.8798 56.6082 74.5963C56.5789 74.3177 56.5447 74.0513 56.5056 73.7972L58.5803 73.7385C58.5705 73.9194 58.5656 74.1027 58.5656 74.2884C58.5656 74.479 58.5656 74.6672 58.5656 74.8529ZM56.8941 78.6651C56.7475 78.6553 56.6033 78.6504 56.4616 78.6504C56.3198 78.6504 56.1806 78.6504 56.0437 78.6504C55.5207 78.6504 55.1004 78.6651 54.7827 78.6944C54.7534 79.0414 54.7241 79.3909 54.6948 79.7428C54.6606 80.0947 54.6434 80.471 54.6434 80.8718C54.6434 81.7173 54.7314 82.36 54.9074 82.7999C55.0784 83.2446 55.3326 83.467 55.6698 83.467C55.8555 83.467 56.0266 83.401 56.183 83.2691C56.3394 83.1371 56.4762 82.9318 56.5935 82.6533C56.7059 82.3796 56.7964 82.0325 56.8648 81.6122C56.9283 81.1919 56.9601 80.6958 56.9601 80.124C56.9601 79.9236 56.9552 79.7086 56.9454 79.4789C56.9308 79.254 56.9137 78.9828 56.8941 78.6651Z" fill="black"/>
</svg>

<svg width="61" height="91" fill="none" xmlns="http://www.w3.org/2000/svg"><rect x=".39" y=".05" width="60.06" height="90.09" rx="4.62" fill="#fff"/><mask id="a" style="mask-type:alpha" maskUnits="userSpaceOnUse" x="1" y="1" width="58" height="87"><path d="M11.28 2.36h42.24a4.04 4.04 0 0 1 4.04 4.04V67.7c0 .91-.74 1.66-1.66 1.66-1.32 0-2.47.92-2.75 2.21l-2.26 10.4c-.2.91.2 1.85 1.01 2.33.89.54.53 1.9-.5 1.92l-44.98.94a4.04 4.04 0 0 1-4.13-4.18l2.03-59.29a2.95 2.95 0 0 1 2.94-2.84 4.1 4.1 0 0 0 4.1-4.1V8.22c0-.96-.45-1.87-1.22-2.44a1.9 1.9 0 0 1 1.14-3.42Z" fill="#C4C4C4" stroke="#000" stroke-width="1.15"/></mask><g mask="url(#a)"><rect x="6.17" y="5.25" width="49.66" height="79.69" rx="4.04" stroke="#000" stroke-width="1.15"/></g><path d="M36.2 54.33H25.81c4.13-2.56 4.86-4.63 5.19-8.72l-6.92 3.49c-3.78-2.68-3.98-4.2 0-6.99l6.92 3.5-3.46-8.73c2.19-4.53 4.32-4.36 6.91 0l-3.45 8.73 7.78-3.5c3.03 2.73 2.36 4.26 0 6.99L31 45.6c.63 4.1 1.52 6.13 5.18 8.73Z" fill="#000"/><path d="M31 45.6c-.32 4.1-1.05 6.17-5.18 8.73H36.2c-3.66-2.6-4.55-4.63-5.18-8.72Zm0 0-6.9 3.5c-3.79-2.68-3.99-4.2 0-6.99l6.9 3.5Zm0 0 3.46-8.72c-2.59-4.36-4.72-4.53-6.91 0l3.46 8.73Zm0 0 7.79-3.49c3.03 2.73 2.36 4.26 0 6.99L31 45.6Z" stroke="#000" stroke-width="1.15"/><path d="M16.7 18.53h-4.88c1.94-1.14 2.28-2.06 2.44-3.88L11 16.2c-1.78-1.19-1.87-1.87 0-3.1l3.26 1.55-1.63-3.88c1.03-2.01 2.03-1.94 3.25 0l-1.62 3.88 3.66-1.55c1.42 1.21 1.1 1.89 0 3.1l-3.66-1.55c.3 1.82.71 2.72 2.44 3.88Z" fill="#000"/><path d="M14.26 14.65c-.16 1.82-.5 2.74-2.44 3.88h4.88c-1.73-1.16-2.15-2.06-2.44-3.88Zm0 0L11 16.2c-1.78-1.19-1.87-1.87 0-3.1l3.26 1.55Zm0 0 1.62-3.88c-1.22-1.94-2.22-2.01-3.25 0l1.63 3.88Zm0 0 3.66-1.55c1.42 1.21 1.1 1.89 0 3.1l-3.66-1.55Z" stroke="#000" stroke-width="1.15"/><path d="M44.15 71.66h4.88c-1.94 1.13-2.29 2.06-2.44 3.87l3.25-1.55c1.78 1.2 1.87 1.87 0 3.1l-3.25-1.55 1.62 3.88c-1.03 2.02-2.03 1.94-3.25 0l1.63-3.88-3.66 1.56c-1.43-1.22-1.12-1.9 0-3.1l3.66 1.54c-.3-1.81-.72-2.72-2.44-3.87Z" fill="#000"/><path d="M46.59 75.53c.15-1.81.5-2.74 2.44-3.87h-4.88c1.72 1.15 2.14 2.06 2.44 3.87Zm0 0 3.25-1.55c1.78 1.2 1.87 1.87 0 3.1l-3.25-1.55Zm0 0-1.63 3.88c1.22 1.94 2.22 2.02 3.25 0l-1.62-3.88Zm0 0-3.66 1.56c-1.43-1.22-1.12-1.9 0-3.1l3.66 1.54Z" stroke="#000" stroke-width="1.15"/><path d="m2.28 15.33-.03-1.13-.05-1.13-.06-1.14a30.92 30.92 0 0 1 .01-2.43c.03-.43.08-.85.16-1.24.08-.4.19-.78.33-1.12.13-.36.31-.66.53-.92a2.4 2.4 0 0 1 1.93-.84c.4 0 .77.06 1.07.2.3.12.56.3.77.52.21.23.39.5.52.8a7.83 7.83 0 0 1 .48 2.08 14.8 14.8 0 0 1-.01 2.4 755.7 755.7 0 0 1-.07 1.7 1639.31 1639.31 0 0 0-.11 3.32l-2.2-.08a48.85 48.85 0 0 0 .4-3.24 13.52 13.52 0 0 0-1.91-.01 72.18 72.18 0 0 0 .2 2.52c.02.28.06.54.1.8l-2.08.06.02-.55v-.57Zm1.67-3.81.43.01h.42c.52 0 .94-.01 1.26-.04l.09-1.05c.03-.35.05-.73.05-1.13 0-.84-.09-1.48-.27-1.92-.17-.45-.42-.67-.76-.67a.78.78 0 0 0-.51.2c-.16.13-.3.33-.41.61-.11.28-.2.62-.27 1.04a10.1 10.1 0 0 0-.08 2.14l.05.81ZM58.57 74.85a85.32 85.32 0 0 0 .08 2.26l.05 1.14a30.84 30.84 0 0 1-.01 2.44c-.03.43-.08.84-.16 1.24s-.19.77-.32 1.12c-.14.35-.32.66-.54.92a2.4 2.4 0 0 1-1.93.84c-.4 0-.76-.07-1.07-.2a2.2 2.2 0 0 1-.77-.53 2.68 2.68 0 0 1-.52-.79 7.83 7.83 0 0 1-.48-2.08 14.77 14.77 0 0 1 .01-2.4 1249.22 1249.22 0 0 1 .08-1.7 1377.29 1377.29 0 0 0 .1-3.33l2.2.08a48.73 48.73 0 0 0-.39 3.24 13.57 13.57 0 0 0 1.9.02 69.63 69.63 0 0 0-.2-2.52c-.02-.28-.06-.55-.1-.8l2.08-.06-.01.55v.56Zm-1.68 3.82-.43-.02h-.42c-.52 0-.94.02-1.26.04l-.09 1.05c-.03.35-.05.73-.05 1.13 0 .85.1 1.49.27 1.93.17.44.42.67.76.67.19 0 .36-.07.51-.2.16-.13.3-.34.41-.62.12-.27.2-.62.27-1.04a10.1 10.1 0 0 0 .09-2.13l-.06-.81Z" fill="#000"/></svg>
